X:14
T: Der Vorwirt
N: Q0089M
O: Mitteleuropa, Deutschland / Frankreich, Lothringen
N: Schlusston rhythmisch korrigiert.
R: Ballade, Mord, Grab, Auferstehen, Geist
M: 4/4
L: 1/8
K: G
D2 | G3cB2D2 | B2G2z2
D2 | G3cB2D2 | B2G2z2
d2 | B3AGGG2 | F3GA2
c2 | B3AG2G2 | A3BG2

